X:1
T:Title
%%score { 1 | 2 }
L:1/8
Q:1/4=100
M:4/4
K:D
V:1 treble nm="Grand Piano"
V:2 bass 
V:1
 [FA]2 F>[EG] [FA]2 [GB]2 | [FA]6 [Fd]2 | [Gc]2 [GA]2 [EG]2 [CE]2 | [A,DF]6 [A,DF]2 | %4
w: G.~F.~Root * * * *||||
 [A,CE]2 [A,EG]2 [A,DF]2 [DFA]2 | [CEG]2 [CGB]2 [DA]2 [Fd]2 | c2 A2 ^G2 B2 | [CA]6 z2 | %8
w: ||||
 [Fd]2 [Fd]>[Fd] [Fd]2 [Fd]2 | c6 c2 | B2 B2 d2 B2 | [FA]6 [FA]2 | [Fd]2 [FA]2 [EG]2 [DF]2 | %13
w: |||||
 [DB]3 [B,DG] [B,DE]2 [DB]2 | [A,CA]3 [A,EG] [A,DF]2[K:bass] [G,CE]2 | [F,D]6 z2 |] %16
w: |||
V:2
 [D,D]2 [D,D]>[D,D] [D,D]2 [D,D]2 | [D,D]6 [D,A,]2 | [A,,A,]2 [A,,A,]2 [A,,A,]2 [A,,A,]2 | %3
 D,6 D,2 | A,,2 A,,2 D,2 D,2 | E,2 E,2 F,2 [D,A,]2 | [E,A,E]2 [E,A,C]2 [E,B,D]2 [E,^G,D]2 | %7
 [A,,A,]6 z2 | [B,,F,]2 [B,,B,]>[B,,B,] [B,,B,]2 [D,B,]2 | [F,^A,F]6 [F,A,E]2 | %10
 [G,B,D]2 [G,DG]2 [G,B,G]2 [G,DG]2 | [D,D]6 [D,D]2 | [D,A,]2 [D,A,]2 [D,A,]2 [D,A,]2 | %13
 [G,,G,]3 G,, G,,2 G,,2 | A,,3 A,, A,,2 A,,2 | D,6 z2 |] %16

